X:1
T:6 Lieder, Op.48
T:Bitten
T:6 Lieder, Op.48
T:1. Bitten
T:Ludwig van Beethoven
T:Christian Fürchtegott Gellert
T:OpenScore (CC0)
T:OpenScore (CC0)
C:Ludwig van Beethoven
Z:Christian Fürchtegott Gellert
Z:OpenScore (CC0)
%%score 1 { ( 2 4 6 ) | ( 3 5 ) }
L:1/8
Q:1/4=80
M:2/2
K:E
V:1 treble nm="Voice"
V:2 treble nm="Pianoforte"
V:4 treble 
V:6 treble 
V:3 bass 
V:5 bass 
V:1
"^Feierlich und mit Andacht" z4 | z8 | z8 | z8 | z8 | z8 | z8 | z8 |[K:E][K:treble] z4 B4 | B6 B2 | %10
w: ||||||||Gott,|dei- ne|
 e6 e2 | (e4 d2) c2 | B6 B2 | B6 ^B2 | c4 f4 | e4 d2 z2 | z4 d4 | d4 d4 | e4 e4 | e6 e2 | d4 c4 | %21
w: Gü- te|reicht * so|weit, so|weit die|Wol- ken|ge- hen;|du|krönst uns|mit Barm-|her- zig-|keit, und|
 B6 B2 | (d2 c2) (B2 ^A2) | ^A4 B2 z2 | z8 | z8 | z4 B4 | e6 e2 | e6 e2 | e6 e2 | e6 e2 | e6 e2 | %32
w: eilst, uns|bei- * zu- *|ste- hen.|||Herr!|mei- ne|Burg, mein|Fels, mein|Hort, ver-|nimm mein|
 e6 e2 | d4 (e2 =G2) | F8 | z4 F4 | B6 B2 | A6 A2 | G8 | =G2 G2 G2 G2 | F6 F2 | F8 | E4 z4 | z8 | %44
w: Flehn, merk|auf mein *|Wort;|denn|ich will|vor dir|be-|ten! denn ich will|vor dir|be-|ten!||
 z8 | z4 |] %46
w: ||
V:2
!p! B4 | B6 B2 | e6 e2 | (e4 d2 c2) | B6 B2 | (B4 A2 c2 | [EG]4 [FA]3 [DF]) |!p! [A,DF]8 | %8
 [G,B,E]2 z2 B4 | B6 B2 | e6 e2 | (e4 d2 c2) | B6 B2 | [GB]6 [G^B]2 | c4 f4 |!p! [GBe]4 [FBd]2 z2 | %16
 z4 [FBd]4 | [FG^Bd]4 [GBd]4 | [Gce]4 [Gce]4 | (e6 [ce]2) | [FBd]4 [EGc]4 | [DFB]6 [DFB]2 | %22
 (d2 c2 B2 ^A2) | (^A4 B2) B2- | (B2 ^B2 c2 ^A2) | ^A4 =B4- | B2 B2 B2 B2 |"_cresc." (B4 A2) A2 | %28
 A6 A2 | [E-A]4 [EG]2 [EG]2 |!f! [EG]6!>(! [EG]2 | [=CE=c]6 [CEc]2 | [B,EB]6 [B,EB]2!>)! | %33
!p! [B,^DA]4 B2 =G2 |"_cresc." [B,DF]8- | [B,DF]4 [B,DF]4 |!p! [B,B]6 [B,B]2 | [B,A]6 [B,A]2 | %38
 [B,G]8 | [C=G]2"_cresc." [CEG]2 [CEG]2 [CEG]2 | F6 F2 |"_dim." [DF]8 |!p! [G,B,E]4 [A,CE]4 | %43
"_dim." [G,B,E]4 [F,A,DE]4 |!pp! [G,B,E]8 | [G,B,E]4 |] %46
V:3
 x4 | z2 (E,2 E2 D2 | C2 B,2 A,2 G,2) | (F,2 F4 E2 | D2 C2 B,2 A,2) | (G,2 E,2 C,2 A,,2 | %6
 B,,4 B,,,4) | (E,,2 B,,2 E,2 B,,2) | [E,,E,]2 z2 z4 | z2 (E,2 E2 D2 | C2 B,2 A,2 G,2) | %11
 (F,2 F4 E2 | D2 C2 B,2 A,2) | (G,2"^cresc." F,2 E,2 D,2 | C,2 B,,2 A,,2 F,,2) | %15
 (B,,2 B,,,2 B,,2 ^A,,2 | B,,2 C,2 B,,2 =A,,2) | (G,,2 D,2 G,2 F,2 | E,2 D,2 C,2 B,,2 | %19
 ^A,,2 G,,2 F,,2 A,,2) | (B,,2 D,,2 E,,2 C,,2) | (F,,2 B,,2 D,2 F,2) | F,,2 F,2 F,,2 F,2 | %23
 z2 (B,,,2 B,,2 =A,,2) | (G,,2 F,,2 E,,2 F,,2) | z2 (B,,,2 D,,2 F,,2 | B,,2 D,2 F,2 B,,2) | %27
 z2 (=C,2 E,2 A,2) | z2 (=C,2 E,2 A,2) | z2 (B,,2 =D,2 G,2) | z2 (B,,2 =D,2 G,2) | %31
 z2 (A,,2 =C,2 E,2) | z2 (=G,,2 B,,2 G,,2 | F,,2 B,,2 =G,,2 E,,2) | (B,,2 B,,,2 D,,2 F,,2 | %35
 B,,2 C,2 B,,2 A,,2) | [^G,,E,]6 [G,,E,]2 | [F,,D,]6 [F,,D,]2 | [E,,E,]8 | %39
 [^A,,E,]2 [A,,E,]2 [A,,E,]2 [A,,E,]2 | [B,,B,]8 | [B,,,B,,]8 | [E,,E,]8- | [E,,E,]8 | [E,,E,]8- | %45
 [E,,E,]4 |] %46
V:4
 x4 | G4 x2 (F2 | E2 d2 c2 B2) | A6 A2 | A6 D2 | E2"_cresc." G2 E2 E2 | (E2 B,4 A,2) | x8 | x8 | %9
 G6 (F2 | E2 d2 c2 B2) | A6 A2 | A6 D2 | E6 F2 | [EG]4 (c2 A2) | x8 | x8 | x8 | x8 | c2 B2 ^A2 F2 | %20
 x8 | x8 | F4 x4 | [CE]4 [B,D]2 D2 | E2 [D=A]2 [EG]2 [CE]2 | [CE]4 [=B,D]4- | %26
 [B,D]2 [B,D]2 [B,D]2 [B,D]2 | [=CE]6 [CE]2 | [=CE]6 [CE]2 | [B,=D]6 [B,D]2 | [B,=D]6 [B,D]2 | x8 | %32
 x8 | x4 [B,E]4 | x8 | x8 | x8 | x8 | x8 | x8 | E4 (D2 C2) | (B,4 A,4) | x8 | x8 | x8 | x4 |] %46
V:5
 x4 | x8 | x8 | x8 | x8 | x8 | x8 | E,,8 | x8 | x8 | x8 | x8 | x8 | x8 | x8 | x8 | x8 | x8 | x8 | %19
 x8 | x8 | x8 | x8 | x8 | x8 | x8 | x8 | x8 | x8 | x8 | x8 | x8 | x8 | x8 | x8 | x8 | x8 | x8 | %38
 x8 | x8 | x8 | x8 | x8 | x8 | x8 | x4 |] %46
V:6
 x4 | x8 | x8 | x8 | x8 | x8 | x8 | x8 | x8 | x8 | x8 | x8 | x8 | x8 | x8 | x8 | x8 | x8 | x8 | %19
 F6 x2 | x8 | x8 | F2 E2 [DF]2 [CE]2 | x8 | x8 | x8 | x8 | x8 | x8 | x8 | x8 | x8 | x8 | x8 | x8 | %35
 x8 | x8 | x8 | x8 | x8 | x8 | x8 | x8 | x8 | x8 | x4 |] %46

